src/images/partners/qidao.svg

<svg width="48" height="48" viewBox="0 0 48 48" fill="none" xmlns="http://www.w3.org/2000/svg">
<path d="M24 48C37.2549 48 48 37.2549 48 24C48 10.7452 37.2549 0 24 0C10.7452 0 0 10.7452 0 24C0 37.2549 10.7452 48 24 48Z" fill="#F87171"/>
<path d="M23.9078 18.2889C23.3771 17.8162 22.3248 17.1644 20.4989 17.173C18.6731 17.1815 18.9715 18.1027 18.9715 18.1027C18.9715 18.1027 18.9341 18.8543 20.1266 18.8778C21.3192 18.901 22.5977 18.9473 23.6349 19.3274C24.6721 19.7075 24.4392 18.7607 23.9078 18.2889Z" fill="white"/>
<path d="M19.5926 20.0057C19.4828 20.0705 19.4547 20.2526 19.582 20.2757C20.3031 20.4043 21.4437 20.6381 22.7161 20.4372C22.8367 20.4182 22.8186 20.2573 22.7314 20.1739C22.28 19.7417 21.0677 19.1358 19.5926 20.0057Z" fill="white"/>
<path d="M34.5956 32.094C34.5789 32.0709 34.5562 32.0527 34.5296 32.0415C34.5031 32.0303 34.4739 32.0266 34.4455 32.0307C34.4168 32.0348 34.39 32.0465 34.3679 32.0646C34.3458 32.0826 34.329 32.1063 34.3199 32.133C33.5778 34.2921 32.9701 33.7632 32.6894 33.299C32.5919 33.1349 32.5191 32.958 32.4734 32.7736C31.7651 30.0155 32.4137 27.475 32.4137 27.475C32.7992 28.649 33.8101 28.997 34.3281 29.0988C34.3577 29.1048 34.3882 29.1023 34.4163 29.0917C34.4444 29.0813 34.4687 29.0631 34.4868 29.0396C34.5046 29.016 34.5154 28.9877 34.5175 28.9585C34.5197 28.9291 34.5134 28.8997 34.4991 28.8739C32.5147 25.0677 33.6879 23.4547 33.6879 23.4547C34.0295 23.8263 34.5925 23.8596 34.9471 23.8402C34.977 23.8385 35.0058 23.8287 35.0302 23.8117C35.0546 23.7948 35.0736 23.7714 35.0849 23.7444C35.0963 23.7172 35.0998 23.6876 35.0948 23.6588C35.0898 23.63 35.0764 23.603 35.0565 23.5812C33.6185 22.0276 33.5091 21.5005 33.4531 18.8692C33.4224 17.411 32.8989 16.6441 32.4122 16.2447C31.8553 15.7882 31.4109 15.2066 31.1677 14.5355C29.2276 9.19825 25.5975 8.49299 22.2289 8.69269C18.047 8.94097 15.8205 12.0733 14.7635 13.6341C13.6454 15.2844 12.7741 17.7245 12.8329 18.4711C12.8918 19.2177 13.5958 19.1009 13.5958 19.9639C13.5958 20.8272 12.2328 21.545 12.7686 23.9716C13.0053 25.0408 13.9634 25.8423 13.5324 28.2847C12.7617 32.6743 16.1996 38.0078 17.0562 38.8036C17.1601 38.8992 17.3425 38.822 17.3237 38.6834C17.19 37.7036 17.3857 36.3444 17.3857 36.3444C19.1082 39.9576 23.927 39.2875 25.4362 38.9775C25.4682 38.971 25.4974 38.955 25.5197 38.9317C25.542 38.9085 25.5565 38.8789 25.561 38.8473C25.5657 38.8156 25.5601 38.7835 25.5452 38.755C25.5303 38.7265 25.5069 38.7033 25.478 38.6884C23.9541 37.8962 23.6059 36.2869 23.6059 36.2869C25.1223 36.9894 26.0939 36.8716 26.5621 36.7209C26.5906 36.7116 26.6157 36.6947 26.6347 36.6718C26.6537 36.6491 26.6658 36.6216 26.6693 36.5924C26.673 36.5632 26.668 36.5336 26.6552 36.5072C26.6423 36.4806 26.622 36.4583 26.5965 36.4424C26.1398 36.1619 25.4436 35.0032 24.9169 33.8692C24.7007 33.4013 24.6239 32.8832 24.6957 32.3745C24.7673 31.8657 24.9846 31.3874 25.3223 30.9943C25.9385 30.2746 26.7469 29.2702 27.6659 28.2028C27.8581 27.9779 28.1255 28.1974 28.2267 28.4411C29.5694 31.7314 31.3162 34.2116 32.5203 34.8953C33.3934 35.4229 34.3497 35.5178 34.7794 35.1859C35.9642 34.2715 35.0248 32.694 34.5956 32.094ZM20.0589 29.0318C18.6187 29.1169 18.9469 27.2849 17.889 27.3297C16.7557 27.3792 17.0953 28.7762 16.3352 28.8612C15.5751 28.9463 15.6638 26.8099 16.1973 26.5619C17.0379 26.1725 18.0222 26.0789 18.8103 26.1059C19.7441 26.1373 20.6362 26.1018 21.0548 26.9807C21.5506 28.0175 21.4987 28.949 20.0589 29.0318ZM29.1668 15.9402C27.252 17.0539 27.1392 17.6044 26.865 19.5628C26.8044 19.9931 26.7428 20.497 26.9441 20.7818C27.3986 21.4244 28.263 21.9003 28.0258 22.9857C27.4605 25.5688 25.9701 28.5972 23.9711 29.5436C23.7303 29.6575 23.4546 29.4272 23.3986 29.1716C23.1757 28.1479 22.6453 26.2867 22.502 25.6791C21.79 22.1982 18.3977 22.15 18.3026 22.8156C18.2745 23.0136 18.9897 23.2744 19.4436 23.4192C19.8604 23.5543 19.8747 24.1362 19.4596 24.2739C19.3508 24.3077 19.2375 24.3256 19.1232 24.3269C18.2846 24.2707 17.2208 24.3345 16.741 24.3688C16.5804 24.3805 16.4211 24.3334 16.2942 24.2365C16.1672 24.1394 16.0817 23.9996 16.0544 23.8443C15.8669 22.7788 16.1983 22.3969 16.599 21.385C16.7984 20.8811 17.0544 19.8655 17.1431 19.3446C17.1891 19.0653 17.1693 18.7297 17.1394 18.4783C17.1031 18.1811 17.0888 17.8816 17.0967 17.5824C17.1252 16.6167 17.2231 15.8282 17.9744 15.8282C19.3279 15.8282 22.1917 15.8322 22.6453 15.1809C23.121 14.499 20.4665 15.1602 17.6141 15.0703C17.5584 15.0684 17.5051 15.0468 17.4645 15.0094C17.4238 14.972 17.3984 14.9214 17.3931 14.867C17.3931 14.8499 17.3899 14.8332 17.388 14.8162C17.3837 14.7674 17.3898 14.7183 17.4057 14.672C17.4217 14.6256 17.4472 14.583 17.4808 14.5467C17.5143 14.5104 17.5552 14.4813 17.6007 14.4612C17.6463 14.4411 17.6956 14.4304 17.7456 14.4298C19.2689 14.4113 20.428 14.3079 20.7327 13.8734C21.0425 13.429 19.503 13.6282 17.758 13.644C17.5346 13.644 17.3499 13.6408 17.3614 13.4227V13.4155C17.3661 13.3289 17.4031 13.2471 17.4655 13.1855C17.5279 13.124 17.6112 13.087 17.6996 13.0818C18.7262 13.0156 19.1638 12.9392 19.207 12.618C19.2501 12.2969 19.1013 12.3292 17.9662 12.3931C17.7194 12.4066 17.7902 12.2236 17.9303 12.0234C18.2846 11.5129 19.8687 10.0403 23.3737 10.1478C29.3783 10.3349 29.1885 14.4972 29.3724 15.5084C29.3871 15.5923 29.3753 15.6786 29.3387 15.7558C29.302 15.833 29.2419 15.8973 29.1668 15.9402Z" fill="white"/>
</svg>

<svg xmlns="http://www.w3.org/2000/svg" width="48" height="48" fill="none"><path fill="#F87171" d="M24 48c13.255 0 24-10.745 24-24S37.255 0 24 0 0 10.745 0 24s10.745 24 24 24"/><path fill="#fff" d="M23.908 18.289c-.53-.473-1.583-1.125-3.41-1.116-1.825.009-1.527.93-1.527.93s-.037.751 1.156.775c1.192.023 2.47.07 3.508.45s.804-.567.273-1.04M19.593 20.006c-.11.064-.138.247-.011.27.721.128 1.862.362 3.134.161.12-.019.103-.18.015-.263-.451-.432-1.663-1.038-3.138-.168"/><path fill="#fff" d="M34.596 32.094a.16.16 0 0 0-.15-.063.16.16 0 0 0-.126.102c-.742 2.16-1.35 1.63-1.63 1.166a2 2 0 0 1-.217-.525c-.708-2.759-.06-5.299-.06-5.299.386 1.174 1.397 1.522 1.915 1.624a.16.16 0 0 0 .159-.06.15.15 0 0 0 .012-.165c-1.984-3.806-.811-5.42-.811-5.42.341.372.904.406 1.26.386a.16.16 0 0 0 .082-.028.16.16 0 0 0 .065-.153.16.16 0 0 0-.038-.078c-1.439-1.553-1.548-2.08-1.604-4.712-.03-1.458-.554-2.225-1.04-2.624-.558-.457-1.002-1.038-1.245-1.71-1.94-5.337-5.57-6.042-8.94-5.842-4.181.248-6.408 3.38-7.465 4.941-1.118 1.65-1.989 4.09-1.93 4.837s.763.63.763 1.493-1.363 1.581-.827 4.008c.236 1.069 1.194 1.87.763 4.313-.77 4.39 2.668 9.723 3.524 10.519.104.095.287.018.268-.12-.134-.98.062-2.34.062-2.34 1.722 3.614 6.541 2.944 8.05 2.633a.16.16 0 0 0 .084-.045.153.153 0 0 0-.042-.244c-1.524-.792-1.872-2.401-1.872-2.401 1.516.702 2.488.585 2.956.434a.16.16 0 0 0 .107-.129.15.15 0 0 0-.073-.15c-.456-.28-1.152-1.439-1.68-2.573a2.67 2.67 0 0 1 .406-2.875c.617-.72 1.425-1.724 2.344-2.791.192-.225.46-.006.56.238 1.343 3.29 3.09 5.77 4.294 6.454.873.528 1.83.623 2.26.29 1.184-.913.245-2.491-.184-3.091m-14.537-3.062c-1.44.085-1.112-1.747-2.17-1.702-1.133.05-.794 1.446-1.554 1.531s-.671-2.051-.138-2.3c.84-.389 1.825-.482 2.613-.455.934.031 1.826-.004 2.245.875.496 1.036.444 1.968-.996 2.05m9.108-13.092c-1.915 1.114-2.028 1.664-2.302 3.623-.06.43-.122.934.08 1.219.454.642 1.318 1.118 1.08 2.204-.564 2.583-2.055 5.611-4.054 6.558-.24.113-.516-.117-.572-.372-.223-1.024-.754-2.885-.897-3.493-.712-3.48-4.104-3.529-4.2-2.863-.027.198.688.458 1.142.603.416.135.43.717.016.855a1.2 1.2 0 0 1-.337.053c-.838-.056-1.902.007-2.382.042a.66.66 0 0 1-.447-.133.63.63 0 0 1-.24-.392c-.187-1.065.144-1.447.545-2.459.2-.504.455-1.52.544-2.04.046-.28.026-.615-.004-.867a6 6 0 0 1-.042-.896c.028-.965.126-1.754.877-1.754 1.354 0 4.218.004 4.671-.647.476-.682-2.178-.02-5.03-.11a.23.23 0 0 1-.15-.062.22.22 0 0 1-.072-.142q-.001-.026-.005-.05a.35.35 0 0 1 .093-.27.36.36 0 0 1 .265-.117c1.523-.019 2.682-.122 2.987-.557.31-.444-1.23-.245-2.975-.229-.223 0-.408-.003-.397-.221v-.008a.35.35 0 0 1 .104-.23.36.36 0 0 1 .235-.103c1.026-.066 1.464-.143 1.507-.464s-.106-.289-1.24-.225c-.248.014-.177-.17-.037-.37.355-.51 1.939-1.983 5.444-1.875 6.004.187 5.815 4.35 5.998 5.36a.41.41 0 0 1-.205.432"/></svg>
